img/deals/car-icon.svg

<svg width="24" height="24" viewBox="0 0 24 24" fill="none" xmlns="http://www.w3.org/2000/svg">
<g clip-path="url(#clip0_1_235)">
<path d="M24 8.50005C24 8.10222 23.842 7.72069 23.5607 7.43939C23.2794 7.15808 22.8978 7.00005 22.5 7.00005C22.5 7.00005 21.916 7.00005 21.875 7.00805C21.1272 5.62258 20.2705 4.29875 19.313 3.04905C18.8134 2.39935 18.121 1.92435 17.335 1.69205C15.574 0.836049 8.426 0.836049 6.665 1.69205C5.879 1.92435 5.18664 2.39935 4.687 3.04905C3.72945 4.29875 2.87275 5.62258 2.125 7.00805C2.084 7.00005 1.5 7.00005 1.5 7.00005C1.10218 7.00005 0.720644 7.15808 0.43934 7.43939C0.158035 7.72069 0 8.10222 0 8.50005L0 15C0.000193338 15.702 0.18511 16.3916 0.536174 16.9994C0.887237 17.6073 1.39208 18.1121 2 18.463V20C2 20.7957 2.31607 21.5588 2.87868 22.1214C3.44129 22.684 4.20435 23 5 23C5.79565 23 6.55871 22.684 7.12132 22.1214C7.68393 21.5588 8 20.7957 8 20V19H16V20C16 20.7957 16.3161 21.5588 16.8787 22.1214C17.4413 22.684 18.2044 23 19 23C19.7956 23 20.5587 22.684 21.1213 22.1214C21.6839 21.5588 22 20.7957 22 20V18.463C22.6079 18.1121 23.1128 17.6073 23.4638 16.9994C23.8149 16.3916 23.9998 15.702 24 15V8.50005ZM6.274 4.26605C6.51898 3.95012 6.85736 3.71951 7.241 3.60705C8.76 2.85605 15.241 2.85605 16.759 3.60705C17.1426 3.71951 17.481 3.95012 17.726 4.26605C19.2446 6.2573 20.4953 8.43927 21.446 10.756C15.1818 9.84204 8.81817 9.84204 2.554 10.756C3.5047 8.43927 4.75538 6.2573 6.274 4.26605ZM6 20C6 20.2653 5.89464 20.5196 5.70711 20.7072C5.51957 20.8947 5.26522 21 5 21C4.73478 21 4.48043 20.8947 4.29289 20.7072C4.10536 20.5196 4 20.2653 4 20V19H6V20ZM20 20C20 20.2653 19.8946 20.5196 19.7071 20.7072C19.5196 20.8947 19.2652 21 19 21C18.7348 21 18.4804 20.8947 18.2929 20.7072C18.1054 20.5196 18 20.2653 18 20V19H20V20ZM20 17H4C3.46957 17 2.96086 16.7893 2.58579 16.4143C2.21071 16.0392 2 15.5305 2 15V12.857C5.31076 12.3509 8.6514 12.0646 12 12C15.3486 12.0646 18.6892 12.3509 22 12.857V15C22 15.5305 21.7893 16.0392 21.4142 16.4143C21.0391 16.7893 20.5304 17 20 17ZM6 15C6 15.2653 5.89464 15.5196 5.70711 15.7072C5.51957 15.8947 5.26522 16 5 16C4.73478 16 4.48043 15.8947 4.29289 15.7072C4.10536 15.5196 4 15.2653 4 15C4 14.7348 4.10536 14.4805 4.29289 14.2929C4.48043 14.1054 4.73478 14 5 14C5.26522 14 5.51957 14.1054 5.70711 14.2929C5.89464 14.4805 6 14.7348 6 15ZM20 15C20 15.2653 19.8946 15.5196 19.7071 15.7072C19.5196 15.8947 19.2652 16 19 16C18.7348 16 18.4804 15.8947 18.2929 15.7072C18.1054 15.5196 18 15.2653 18 15C18 14.7348 18.1054 14.4805 18.2929 14.2929C18.4804 14.1054 18.7348 14 19 14C19.2652 14 19.5196 14.1054 19.7071 14.2929C19.8946 14.4805 20 14.7348 20 15Z" fill="#EFBE4C"/>
</g>
<defs>
<clipPath id="clip0_1_235">
<rect width="24" height="24" fill="white"/>
</clipPath>
</defs>
</svg>

<svg width="24" height="24" fill="none" xmlns="http://www.w3.org/2000/svg"><g clip-path="url(#clip0_1_235)"><path d="M24 8.5A1.5 1.5 0 0022.5 7s-.584 0-.625.008a29.719 29.719 0 00-2.562-3.959 3.884 3.884 0 00-1.978-1.357c-1.761-.856-8.909-.856-10.67 0A3.884 3.884 0 004.687 3.05a29.709 29.709 0 00-2.562 3.959C2.084 7 1.5 7 1.5 7A1.5 1.5 0 000 8.5V15a4 4 0 002 3.463V20a3 3 0 106 0v-1h8v1a3 3 0 106 0v-1.537A3.999 3.999 0 0024 15V8.5zM6.274 4.266a1.9 1.9 0 01.967-.659c1.519-.751 8-.751 9.518 0a1.9 1.9 0 01.967.659 28.62 28.62 0 013.72 6.49 65.427 65.427 0 00-18.892 0 28.618 28.618 0 013.72-6.49zM6 20a1 1 0 11-2 0v-1h2v1zm14 0a1 1 0 01-2 0v-1h2v1zm0-3H4a2 2 0 01-2-2v-2.143A75.86 75.86 0 0112 12c3.349.065 6.69.35 10 .857V15a2 2 0 01-2 2zM6 15a1 1 0 11-2 0 1 1 0 012 0zm14 0a1 1 0 11-2 0 1 1 0 012 0z" fill="#EFBE4C"/></g><defs><clipPath id="clip0_1_235"><path fill="#fff" d="M0 0h24v24H0z"/></clipPath></defs></svg>
